X: 3
T:Church Street Blues
C:Traditional
R:Reel
M:4/4
L:1/8
K:Em
Q:216
D|"D"Bd3d2A"G"B-|B A2 G3 E2|"D"D2G2 "A"A B3|"D"B4z4|
w: Well I've been han-gin' o-ut of town, Lord, in that low down rain
B2dd2 A3|"G"A2BG3ED|D2A2"D"A2B2|"A"G8|z8|
w:Wat-chin' good time Cha-rlie Fran-cis _dri-vin' me in-sane
"D"Bd3d3AB-|"G"B A2G2 E2D|"D"G3A3"A"A2|"D"B4z3A|
w:Up on sha-dy Ch-ar-lotte Street, Lord, the green lights look red I
B d3 d2 A2|"G"A2 B G3 ED|"D"DG3"A"A2BG-|"D"G8|
w: wish I's back home on the farm Lord, _in my feat-her b-ed
z4zG2D|"D"Bd3"G"e3d|"A"d A3 "D"G3 A|A2 A G3 GB-|"D"B4 z c3|
w: And I got my-self a ro-ckin' chair To see if I could lo-se These
"G"e4"F#m"d4|"Bm"zB3"A"A3G|"G"EG3"A"B2A2|"D"G8||
w:thin dime, hard time _Hell on Church Street blues
W:I found myself a picker friend who's read yesterday's news
W:I folded up page twenty-one and stuck it in my shoes
W:I gave me a nickel to the poor, my good turn for the day
W:I folded up my own billfold, threw it far away
W:
W:Well, I wish I had some guitar strings, Old Black Diamond brand
W:I'd string up this old Martin box and go and join some band
W:But I guess I'm gonna stay right here, just pick and sing a while
W:Try to make me a little change and give them folks a smile

